;Generated with Cura_SteamEngine 15.01
; Default start code
G28 ; Home extruder
G1 Z15 F100
M107 ; Turn off fan
G90 ; Absolute positioning
M82 ; Extruder in absolute mode
M190 S50
; Activate all used extruder
M104 T0 S210
G92 E0 ; Reset extruder position
; Wait for all used extruders to reach temperature
M109 T0 S210
;Layer count: 2
;LAYER:0
M107
G0 F9000 X93.034 Y94.347 Z0.300
G0 X93.766 Y93.859
;TYPE:SKIRT
G1 F1800 X93.896 Y93.535 E0.01742
G1 X94.976 Y92.498 E0.09212
G1 X96.106 Y91.879 E0.15640
G1 X97.008 Y91.505 E0.20511
G1 X98.065 Y91.196 E0.26005
G1 X99.068 Y91.081 E0.31042
G1 X99.934 Y91.249 E0.35443
G1 X100.252 Y91.113 E0.37169
G1 X101.748 Y91.142 E0.44634
G1 X102.991 Y91.505 E0.51094
G1 X103.893 Y91.879 E0.55966
G1 X104.847 Y92.401 E0.61391
G1 X105.652 Y93.034 E0.66500
G1 X106.140 Y93.766 E0.70889
G1 X106.464 Y93.896 E0.72631
G1 X107.501 Y94.976 E0.80101
G1 X108.120 Y96.106 E0.86529
G1 X108.494 Y97.008 E0.91400
G1 X108.803 Y98.065 E0.96894
G1 X108.918 Y99.068 E1.01931
G1 X108.750 Y99.934 E1.06332
G1 X108.886 Y100.252 E1.08058
G1 X108.857 Y101.748 E1.15523
G1 X108.494 Y102.991 E1.21983
G1 X108.120 Y103.893 E1.26855
G1 X107.598 Y104.847 E1.32280
G1 X106.965 Y105.652 E1.37389
G1 X106.233 Y106.140 E1.41778
G1 X106.103 Y106.464 E1.43520
G1 X105.023 Y107.501 E1.50990
G1 X103.893 Y108.120 E1.57418
G1 X102.991 Y108.494 E1.62289
G1 X101.934 Y108.803 E1.67784
G1 X100.931 Y108.918 E1.72820
G1 X100.065 Y108.750 E1.77221
G1 X99.747 Y108.886 E1.78947
G1 X98.251 Y108.857 E1.86412
G1 X97.008 Y108.494 E1.92872
G1 X96.106 Y108.120 E1.97744
G1 X95.152 Y107.598 E2.03169
G1 X94.347 Y106.965 E2.08278
G1 X93.859 Y106.233 E2.12668
G1 X93.535 Y106.103 E2.14409
G1 X92.498 Y105.023 E2.21879
G1 X91.879 Y103.893 E2.28307
G1 X91.505 Y102.991 E2.33179
G1 X91.196 Y101.934 E2.38673
G1 X91.081 Y100.931 E2.43710
G1 X91.249 Y100.065 E2.48111
G1 X91.113 Y99.747 E2.49836
G1 X91.142 Y98.251 E2.57301
G1 X91.505 Y97.008 E2.63761
G1 X91.879 Y96.106 E2.68633
G1 X92.401 Y95.152 E2.74058
G1 X93.034 Y94.347 E2.79168
G1 X93.766 Y93.859 E2.83557
G0 F9000 X94.090 Y94.124
G1 F1800 X94.235 Y93.763 E2.85498
G1 X95.214 Y92.823 E2.92269
G1 X96.279 Y92.240 E2.98326
G1 X97.141 Y91.882 E3.02983
G1 X98.144 Y91.590 E3.08194
G1 X99.052 Y91.485 E3.12755
G1 X99.979 Y91.665 E3.17466
G1 X100.330 Y91.515 E3.19370
G1 X101.687 Y91.541 E3.26142
G1 X102.858 Y91.882 E3.32226
G1 X103.720 Y92.240 E3.36883
G1 X104.626 Y92.736 E3.42036
G1 X105.354 Y93.309 E3.46658
G1 X105.875 Y94.090 E3.51342
G1 X106.236 Y94.235 E3.53283
G1 X107.176 Y95.214 E3.60054
G1 X107.759 Y96.279 E3.66111
G1 X108.117 Y97.141 E3.70768
G1 X108.409 Y98.144 E3.75980
G1 X108.514 Y99.052 E3.80540
G1 X108.334 Y99.979 E3.85251
G1 X108.484 Y100.330 E3.87156
G1 X108.458 Y101.687 E3.93927
G1 X108.117 Y102.858 E4.00012
G1 X107.759 Y103.720 E4.04669
G1 X107.263 Y104.626 E4.09822
G1 X106.690 Y105.354 E4.14444
G1 X105.909 Y105.875 E4.19128
G1 X105.764 Y106.236 E4.21068
G1 X104.785 Y107.176 E4.27840
G1 X103.720 Y107.759 E4.33897
G1 X102.858 Y108.117 E4.38554
G1 X101.855 Y108.409 E4.43765
G1 X100.947 Y108.514 E4.48326
G1 X100.020 Y108.334 E4.53037
G1 X99.669 Y108.484 E4.54941
G1 X98.312 Y108.458 E4.61712
G1 X97.141 Y108.117 E4.67797
G1 X96.279 Y107.759 E4.72454
G1 X95.373 Y107.263 E4.77607
G1 X94.645 Y106.690 E4.82229
G1 X94.124 Y105.909 E4.86913
G1 X93.763 Y105.764 E4.88854
G1 X92.823 Y104.785 E4.95625
G1 X92.240 Y103.720 E5.01682
G1 X91.882 Y102.858 E5.06339
G1 X91.590 Y101.855 E5.11551
G1 X91.485 Y100.947 E5.16111
G1 X91.665 Y100.020 E5.20822
G1 X91.515 Y99.669 E5.22727
G1 X91.541 Y98.312 E5.29498
G1 X91.882 Y97.141 E5.35583
G1 X92.240 Y96.279 E5.40239
G1 X92.736 Y95.373 E5.45392
G1 X93.309 Y94.645 E5.50015
G1 X94.090 Y94.124 E5.54698
G0 F9000 X94.415 Y94.388
G1 F1800 X94.574 Y93.992 E5.56827
G1 X95.453 Y93.148 E5.62907
G1 X96.452 Y92.601 E5.68589
G1 X97.274 Y92.260 E5.73029
G1 X98.224 Y91.983 E5.77966
G1 X99.036 Y91.889 E5.82044
G1 X100.024 Y92.081 E5.87065
G1 X100.409 Y91.917 E5.89153
G1 X101.626 Y91.940 E5.95226
G1 X102.725 Y92.260 E6.00937
G1 X103.547 Y92.601 E6.05376
G1 X104.405 Y93.071 E6.10257
G1 X105.057 Y93.584 E6.14396
G1 X105.611 Y94.415 E6.19379
G1 X106.007 Y94.574 E6.21508
G1 X106.851 Y95.453 E6.27587
G1 X107.398 Y96.452 E6.33270
G1 X107.739 Y97.274 E6.37710
G1 X108.016 Y98.224 E6.42647
G1 X108.110 Y99.036 E6.46725
G1 X107.918 Y100.024 E6.51746
G1 X108.082 Y100.409 E6.53834
G1 X108.059 Y101.626 E6.59907
G1 X107.739 Y102.725 E6.65617
G1 X107.398 Y103.547 E6.70057
G1 X106.928 Y104.405 E6.74938
G1 X106.415 Y105.057 E6.79077
G1 X105.584 Y105.611 E6.84059
G1 X105.425 Y106.007 E6.86188
G1 X104.546 Y106.851 E6.92268
G1 X103.547 Y107.398 E6.97950
G1 X102.725 Y107.739 E7.02390
G1 X101.775 Y108.016 E7.07327
G1 X100.963 Y108.110 E7.11405
G1 X99.975 Y107.918 E7.16427
G1 X99.590 Y108.082 E7.18514
G1 X98.373 Y108.059 E7.24587
G1 X97.274 Y107.739 E7.30298
G1 X96.452 Y107.398 E7.34738
G1 X95.594 Y106.928 E7.39618
G1 X94.942 Y106.415 E7.43757
G1 X94.388 Y105.584 E7.48740
G1 X93.992 Y105.425 E7.50869
G1 X93.148 Y104.546 E7.56949
G1 X92.601 Y103.547 E7.62631
G1 X92.260 Y102.725 E7.67071
G1 X91.983 Y101.775 E7.72008
G1 X91.889 Y100.963 E7.76086
G1 X92.081 Y99.975 E7.81107
G1 X91.917 Y99.590 E7.83195
G1 X91.940 Y98.373 E7.89268
G1 X92.260 Y97.274 E7.94978
G1 X92.601 Y96.452 E7.99418
G1 X93.071 Y95.594 E8.04299
G1 X93.584 Y94.942 E8.08438
G1 X94.415 Y94.388 E8.13421
G1 F2400 E4.13421
G0 F9000 X98.328 Y96.056
;TYPE:WALL-INNER
G1 F2400 E8.13421
G1 F1800 X98.229 Y95.978 E8.14049
G1 X98.403 Y95.906 E8.14989
G1 X98.398 Y96.054 E8.15728
G1 X98.422 Y96.189 E8.16412
G1 X98.328 Y96.056 E8.17224
G0 F9000 X98.773 Y97.108
G1 F1800 X98.754 Y97.005 E8.17747
G1 X98.964 Y97.223 E8.19257
G1 X99.285 Y97.434 E8.21173
G1 X99.726 Y97.582 E8.23494
G1 X100.085 Y97.600 E8.25287
G1 X100.408 Y97.549 E8.26919
G1 X100.604 Y97.484 E8.27949
G1 X100.899 Y97.327 E8.29616
G1 X101.205 Y97.058 E8.31649
G1 X101.242 Y97.002 E8.31984
G1 X101.225 Y97.140 E8.32678
G1 X101.257 Y97.499 E8.34476
G1 X101.425 Y97.950 E8.36877
G1 X101.625 Y98.229 E8.38589
G1 X101.770 Y98.374 E8.39612
G1 X102.035 Y98.564 E8.41239
G1 X102.350 Y98.702 E8.42955
G1 X102.672 Y98.765 E8.44592
G1 X102.891 Y98.773 E8.45685
G1 X102.994 Y98.754 E8.46208
G1 X102.776 Y98.964 E8.47718
G1 X102.565 Y99.285 E8.49634
G1 X102.417 Y99.726 E8.51955
G1 X102.399 Y100.085 E8.53748
G1 X102.450 Y100.408 E8.55380
G1 X102.515 Y100.604 E8.56410
G1 X102.672 Y100.899 E8.58077
G1 X102.941 Y101.205 E8.60110
G1 X102.997 Y101.242 E8.60445
G1 X102.859 Y101.225 E8.61138
G1 X102.500 Y101.257 E8.62937
G1 X102.049 Y101.425 E8.65338
G1 X101.770 Y101.625 E8.67050
G1 X101.625 Y101.770 E8.68073
G1 X101.435 Y102.035 E8.69700
G1 X101.297 Y102.350 E8.71416
G1 X101.234 Y102.672 E8.73053
G1 X101.226 Y102.891 E8.74146
G1 X101.245 Y102.994 E8.74669
G1 X101.035 Y102.776 E8.76179
G1 X100.714 Y102.565 E8.78095
G1 X100.273 Y102.417 E8.80416
G1 X99.914 Y102.399 E8.82209
G1 X99.591 Y102.450 E8.83841
G1 X99.395 Y102.515 E8.84871
G1 X99.100 Y102.672 E8.86538
G1 X98.794 Y102.941 E8.88571
G1 X98.757 Y102.997 E8.88906
G1 X98.774 Y102.859 E8.89599
G1 X98.742 Y102.500 E8.91398
G1 X98.574 Y102.049 E8.93799
G1 X98.374 Y101.770 E8.95511
G1 X98.229 Y101.625 E8.96534
G1 X97.964 Y101.435 E8.98161
G1 X97.649 Y101.297 E8.99877
G1 X97.327 Y101.234 E9.01514
G1 X97.108 Y101.226 E9.02607
G1 X97.005 Y101.245 E9.03130
G1 X97.223 Y101.035 E9.04640
G1 X97.434 Y100.714 E9.06556
G1 X97.582 Y100.273 E9.08877
G1 X97.600 Y99.914 E9.10670
G1 X97.549 Y99.591 E9.12302
G1 X97.484 Y99.395 E9.13332
G1 X97.327 Y99.100 E9.14999
G1 X97.058 Y98.794 E9.17032
G1 X97.002 Y98.757 E9.17367
G1 X97.140 Y98.774 E9.18060
G1 X97.499 Y98.742 E9.19859
G1 X97.950 Y98.574 E9.22260
G1 X98.229 Y98.374 E9.23972
G1 X98.374 Y98.229 E9.24995
G1 X98.564 Y97.964 E9.26622
G1 X98.702 Y97.649 E9.28338
G1 X98.765 Y97.327 E9.29975
G1 X98.773 Y97.108 E9.31068
G0 F9000 X98.228 Y98.373
G0 X96.799 Y98.729
G0 X96.005 Y98.398
G1 F1800 X95.904 Y98.408 E9.31575
G1 X95.981 Y98.222 E9.32579
G1 X96.152 Y98.408 E9.33839
G1 X96.005 Y98.398 E9.34574
G0 F9000 X97.325 Y99.101
G0 X97.580 Y100.272
G0 X96.967 Y101.278
G0 X96.054 Y101.601
G1 F1800 X96.189 Y101.577 E9.35259
G1 X96.056 Y101.671 E9.36071
G1 X95.978 Y101.770 E9.36700
G1 X95.906 Y101.596 E9.37639
G1 X96.054 Y101.601 E9.38378
G0 F9000 X97.648 Y101.299
G0 X98.572 Y102.050
G0 X98.614 Y103.525
G0 X98.398 Y103.994
G1 F1800 X98.408 Y104.095 E9.38885
G1 X98.222 Y104.018 E9.39889
G1 X98.408 Y103.847 E9.41149
G1 X98.398 Y103.994 E9.41884
G0 F9000 X99.101 Y102.674
G0 X100.272 Y102.419
G0 X101.278 Y103.032
G0 X101.601 Y103.945
G1 F1800 X101.577 Y103.809 E9.42573
G1 X101.671 Y103.943 E9.43390
G1 X101.770 Y104.021 E9.44019
G1 X101.596 Y104.093 E9.44958
G1 X101.601 Y103.945 E9.45697
G0 F9000 X101.299 Y102.351
G0 X102.050 Y101.427
G0 X103.525 Y101.385
G0 X103.994 Y101.601
G1 F1800 X104.095 Y101.591 E9.46203
G1 X104.018 Y101.777 E9.47208
G1 X103.847 Y101.591 E9.48468
G1 X103.994 Y101.601 E9.49203
G0 F9000 X102.674 Y100.898
G0 X102.419 Y99.727
G0 X103.032 Y98.721
G0 X103.945 Y98.398
G1 F1800 X103.810 Y98.422 E9.49887
G1 X103.943 Y98.328 E9.50700
G1 X104.021 Y98.229 E9.51329
G1 X104.093 Y98.403 E9.52268
G1 X103.945 Y98.398 E9.53007
G0 F9000 X102.351 Y98.700
G0 X101.427 Y97.949
G0 X101.385 Y96.474
G0 X101.601 Y96.005
G1 F1800 X101.591 Y95.904 E9.53513
G1 X101.777 Y95.981 E9.54518
G1 X101.591 Y96.152 E9.55778
G1 X101.601 Y96.005 E9.56513
G0 F9000 X102.157 Y96.175
;TYPE:WALL-OUTER
G1 F1800 X101.886 Y96.425 E9.58353
G1 X101.746 Y96.648 E9.59666
G1 X101.659 Y96.891 E9.60954
G1 X101.627 Y97.147 E9.62241
G1 X101.650 Y97.410 E9.63558
G1 X101.781 Y97.760 E9.65423
G1 X101.931 Y97.969 E9.66706
G1 X102.030 Y98.068 E9.67405
G1 X102.234 Y98.215 E9.68659
G1 X102.470 Y98.318 E9.69944
G1 X102.718 Y98.366 E9.71204
G1 X102.862 Y98.372 E9.71923
G1 X103.221 Y98.306 E9.73744
G1 X103.360 Y98.248 E9.74496
G1 X103.664 Y98.035 E9.76348
G1 X103.853 Y97.794 E9.77876
G1 X103.946 Y97.610 E9.78904
G1 X103.991 Y97.479 E9.79595
G1 X104.006 Y97.460 E9.79716
G1 X104.024 Y97.451 E9.79816
G1 X104.043 Y97.450 E9.79911
G1 X104.061 Y97.457 E9.80008
G1 X104.087 Y97.484 E9.80195
G1 X104.323 Y97.915 E9.82646
G1 X104.528 Y98.409 E9.85315
G1 X104.671 Y98.898 E9.87856
G1 X104.666 Y98.935 E9.88043
G1 X104.655 Y98.952 E9.88144
G1 X104.641 Y98.960 E9.88224
G1 X104.627 Y98.961 E9.88294
G1 X104.361 Y98.855 E9.89723
G1 X104.117 Y98.805 E9.90965
G1 X103.972 Y98.799 E9.91689
G1 X103.603 Y98.864 E9.93559
G1 X103.269 Y99.045 E9.95454
G1 X103.081 Y99.226 E9.96756
G1 X102.979 Y99.370 E9.97636
G1 X102.931 Y99.452 E9.98110
G1 X102.814 Y99.801 E9.99947
G1 X102.800 Y100.064 E10.01261
G1 X102.840 Y100.313 E10.02519
G1 X102.884 Y100.446 E10.03218
G1 X103.003 Y100.670 E10.04483
G1 X103.206 Y100.901 E10.06018
G1 X103.481 Y101.083 E10.07663
G1 X103.723 Y101.168 E10.08942
G1 X103.989 Y101.200 E10.10279
G1 X104.240 Y101.176 E10.11537
G1 X104.478 Y101.100 E10.12783
G1 X104.603 Y101.040 E10.13475
G1 X104.629 Y101.037 E10.13606
G1 X104.648 Y101.043 E10.13705
G1 X104.662 Y101.056 E10.13800
G1 X104.669 Y101.074 E10.13897
G1 X104.669 Y101.109 E10.14071
G1 X104.528 Y101.590 E10.16572
G1 X104.324 Y102.081 E10.19225
G1 X104.082 Y102.523 E10.21739
G1 X104.053 Y102.546 E10.21923
G1 X104.033 Y102.550 E10.22025
G1 X104.014 Y102.545 E10.22123
G1 X104.002 Y102.534 E10.22204
G1 X103.824 Y102.157 E10.24284
G1 X103.574 Y101.886 E10.26124
G1 X103.351 Y101.746 E10.27438
G1 X103.108 Y101.659 E10.28725
G1 X102.852 Y101.627 E10.30012
G1 X102.589 Y101.650 E10.31329
G1 X102.239 Y101.781 E10.33194
G1 X102.030 Y101.931 E10.34477
G1 X101.931 Y102.030 E10.35176
G1 X101.784 Y102.234 E10.36430
G1 X101.681 Y102.470 E10.37715
G1 X101.633 Y102.718 E10.38975
G1 X101.627 Y102.862 E10.39694
G1 X101.693 Y103.221 E10.41515
G1 X101.751 Y103.360 E10.42267
G1 X101.964 Y103.664 E10.44119
G1 X102.205 Y103.853 E10.45647
G1 X102.389 Y103.946 E10.46675
G1 X102.520 Y103.991 E10.47366
G1 X102.539 Y104.006 E10.47487
G1 X102.548 Y104.024 E10.47587
G1 X102.549 Y104.043 E10.47682
G1 X102.542 Y104.061 E10.47779
G1 X102.515 Y104.087 E10.47966
G1 X102.081 Y104.324 E10.50433
G1 X101.590 Y104.528 E10.53085
G1 X101.101 Y104.671 E10.55627
G1 X101.064 Y104.666 E10.55814
G1 X101.047 Y104.655 E10.55915
G1 X101.039 Y104.641 E10.55995
G1 X101.038 Y104.627 E10.56065
G1 X101.144 Y104.361 E10.57494
G1 X101.194 Y104.117 E10.58736
G1 X101.200 Y103.972 E10.59460
G1 X101.135 Y103.603 E10.61329
G1 X100.954 Y103.269 E10.63225
G1 X100.773 Y103.081 E10.64527
G1 X100.629 Y102.979 E10.65407
G1 X100.547 Y102.931 E10.65881
G1 X100.198 Y102.814 E10.67718
G1 X99.935 Y102.800 E10.69032
G1 X99.686 Y102.840 E10.70290
G1 X99.553 Y102.884 E10.70989
G1 X99.329 Y103.003 E10.72254
G1 X99.098 Y103.206 E10.73788
G1 X98.916 Y103.481 E10.75434
G1 X98.831 Y103.723 E10.76713
G1 X98.799 Y103.989 E10.78050
G1 X98.823 Y104.240 E10.79308
G1 X98.899 Y104.478 E10.80554
G1 X98.959 Y104.603 E10.81246
G1 X98.962 Y104.629 E10.81377
G1 X98.956 Y104.648 E10.81476
G1 X98.943 Y104.662 E10.81571
G1 X98.925 Y104.669 E10.81668
G1 X98.890 Y104.669 E10.81842
G1 X98.409 Y104.528 E10.84343
G1 X97.918 Y104.324 E10.86996
G1 X97.476 Y104.082 E10.89510
G1 X97.453 Y104.053 E10.89694
G1 X97.449 Y104.033 E10.89796
G1 X97.454 Y104.014 E10.89894
G1 X97.465 Y104.002 E10.89975
G1 X97.842 Y103.824 E10.92055
G1 X98.113 Y103.574 E10.93895
G1 X98.253 Y103.351 E10.95208
G1 X98.340 Y103.108 E10.96496
G1 X98.372 Y102.852 E10.97783
G1 X98.349 Y102.589 E10.99100
G1 X98.218 Y102.239 E11.00965
G1 X98.068 Y102.030 E11.02248
G1 X97.969 Y101.931 E11.02947
G1 X97.765 Y101.784 E11.04201
G1 X97.529 Y101.681 E11.05486
G1 X97.281 Y101.633 E11.06746
G1 X97.137 Y101.627 E11.07465
G1 X96.778 Y101.693 E11.09286
G1 X96.639 Y101.751 E11.10038
G1 X96.335 Y101.964 E11.11890
G1 X96.146 Y102.205 E11.13418
G1 X96.053 Y102.389 E11.14446
G1 X96.008 Y102.520 E11.15137
G1 X95.993 Y102.539 E11.15258
G1 X95.975 Y102.548 E11.15358
G1 X95.956 Y102.549 E11.15453
G1 X95.938 Y102.542 E11.15550
G1 X95.912 Y102.515 E11.15737
G1 X95.675 Y102.081 E11.18204
G1 X95.471 Y101.590 E11.20856
G1 X95.328 Y101.100 E11.23403
G1 X95.333 Y101.064 E11.23584
G1 X95.344 Y101.047 E11.23685
G1 X95.358 Y101.039 E11.23766
G1 X95.372 Y101.038 E11.23836
G1 X95.638 Y101.144 E11.25264
G1 X95.882 Y101.194 E11.26507
G1 X96.027 Y101.200 E11.27231
G1 X96.396 Y101.135 E11.29100
G1 X96.730 Y100.954 E11.30995
G1 X96.918 Y100.773 E11.32297
G1 X97.020 Y100.629 E11.33178
G1 X97.068 Y100.547 E11.33652
G1 X97.185 Y100.198 E11.35488
G1 X97.199 Y99.935 E11.36802
G1 X97.159 Y99.686 E11.38060
G1 X97.115 Y99.553 E11.38759
G1 X96.996 Y99.329 E11.40025
G1 X96.793 Y99.098 E11.41559
G1 X96.518 Y98.916 E11.43204
G1 X96.276 Y98.831 E11.44484
G1 X96.010 Y98.799 E11.45821
G1 X95.759 Y98.823 E11.47079
G1 X95.521 Y98.899 E11.48325
G1 X95.396 Y98.959 E11.49017
G1 X95.370 Y98.962 E11.49147
G1 X95.351 Y98.956 E11.49247
G1 X95.337 Y98.943 E11.49342
G1 X95.330 Y98.925 E11.49438
G1 X95.330 Y98.890 E11.49613
G1 X95.471 Y98.409 E11.52114
G1 X95.676 Y97.915 E11.54782
G1 X95.917 Y97.476 E11.57281
G1 X95.946 Y97.453 E11.57465
G1 X95.966 Y97.449 E11.57567
G1 X95.985 Y97.454 E11.57665
G1 X95.997 Y97.465 E11.57746
G1 X96.175 Y97.842 E11.59826
G1 X96.425 Y98.113 E11.61666
G1 X96.648 Y98.253 E11.62979
G1 X96.891 Y98.340 E11.64267
G1 X97.147 Y98.372 E11.65554
G1 X97.410 Y98.349 E11.66871
G1 X97.760 Y98.218 E11.68736
G1 X97.969 Y98.068 E11.70019
G1 X98.068 Y97.969 E11.70718
G1 X98.215 Y97.765 E11.71972
G1 X98.318 Y97.529 E11.73257
G1 X98.366 Y97.281 E11.74517
G1 X98.372 Y97.137 E11.75236
G1 X98.306 Y96.778 E11.77057
